Humanity/apps/24/user-info.svg

<?xml version="1.0" encoding="UTF-8" standalone="no"?>
<!-- Created with Inkscape (http://www.inkscape.org/) -->

<svg
   xmlns:svg="http://www.w3.org/2000/svg"
   xmlns="http://www.w3.org/2000/svg"
   xmlns:xlink="http://www.w3.org/1999/xlink"
   version="1.0"
   width="24"
   height="24"
   id="svg11300">
  <defs
     id="defs3">
    <linearGradient
       id="linearGradient3878">
      <stop
         id="stop3880"
         style="stop-color:#1f4b6a;stop-opacity:1"
         offset="0" />
      <stop
         id="stop3882"
         style="stop-color:#4083c2;stop-opacity:1"
         offset="1" />
    </linearGradient>
    <linearGradient
       id="linearGradient3868">
      <stop
         id="stop3870"
         style="stop-color:#8badea;stop-opacity:1"
         offset="0" />
      <stop
         id="stop3872"
         style="stop-color:#6396cd;stop-opacity:1"
         offset="0.26238" />
      <stop
         id="stop3874"
         style="stop-color:#3b7caf;stop-opacity:1"
         offset="0.66093999" />
      <stop
         id="stop3876"
         style="stop-color:#194c70;stop-opacity:1"
         offset="1" />
    </linearGradient>
    <linearGradient
       id="linearGradient3785">
      <stop
         id="stop3787"
         style="stop-color:#b8b8b8;stop-opacity:1"
         offset="0" />
      <stop
         id="stop3789"
         style="stop-color:#878787;stop-opacity:1"
         offset="1" />
    </linearGradient>
    <linearGradient
       id="linearGradient6954">
      <stop
         id="stop6960"
         style="stop-color:#f5f5f5;stop-opacity:1"
         offset="0" />
      <stop
         id="stop6962"
         style="stop-color:#d2d2d2;stop-opacity:1"
         offset="1" />
    </linearGradient>
    <linearGradient
       id="linearGradient3341">
      <stop
         id="stop3343"
         style="stop-color:white;stop-opacity:1"
         offset="0" />
      <stop
         id="stop3345"
         style="stop-color:white;stop-opacity:0"
         offset="1" />
    </linearGradient>
    <linearGradient
       id="linearGradient5060">
      <stop
         id="stop5062"
         style="stop-color:black;stop-opacity:1"
         offset="0" />
      <stop
         id="stop5064"
         style="stop-color:black;stop-opacity:0"
         offset="1" />
    </linearGradient>
    <radialGradient
       cx="23.895569"
       cy="3.9900031"
       r="20.397499"
       fx="23.895569"
       fy="3.9900031"
       id="radialGradient2874"
       xlink:href="#linearGradient3868"
       gradientUnits="userSpaceOnUse"
       gradientTransform="matrix(0,0.86033195,-1.1356228,0,12.531139,-20.445112)" />
    <linearGradient
       x1="18.379412"
       y1="44.980297"
       x2="18.379412"
       y2="3.0816143"
       id="linearGradient2876"
       xlink:href="#linearGradient3878"
       gradientUnits="userSpaceOnUse"
       gradientTransform="matrix(0.36047566,0,0,0.36047572,-0.65141482,-0.65141768)" />
    <linearGradient
       x1="63.397362"
       y1="-12.489107"
       x2="63.397362"
       y2="5.4675598"
       id="linearGradient2878"
       xlink:href="#linearGradient3341"
       gradientUnits="userSpaceOnUse"
       gradientTransform="matrix(0.68608831,0,0,0.6860727,-34.674967,10.408689)" />
    <radialGradient
       cx="32"
       cy="41.5"
       r="21"
       fx="32"
       fy="41.5"
       id="radialGradient2881"
       xlink:href="#linearGradient5060"
       gradientUnits="userSpaceOnUse"
       gradientTransform="matrix(0.45238095,0,0,0.14285715,0.02380949,15.071429)" />
    <radialGradient
       cx="24.999998"
       cy="28.659998"
       r="16"
       fx="24.999998"
       fy="28.659998"
       id="radialGradient2883"
       xlink:href="#linearGradient6954"
       gradientUnits="userSpaceOnUse"
       gradientTransform="matrix(0.67742373,0,0,0.19285627,-5.0162555,9.9977318)" />
    <linearGradient
       x1="30"
       y1="25.084745"
       x2="30"
       y2="45"
       id="linearGradient2885"
       xlink:href="#linearGradient3785"
       gradientUnits="userSpaceOnUse"
       gradientTransform="matrix(0.51613236,0,0,0.51667107,-0.98397254,-0.49180897)" />
    <linearGradient
       x1="29.996229"
       y1="21.440447"
       x2="29.996229"
       y2="43.531425"
       id="linearGradient2887"
       xlink:href="#linearGradient3341"
       gradientUnits="userSpaceOnUse"
       gradientTransform="matrix(0.51613236,0,0,0.51667107,-0.98397254,-0.49180897)" />
    <radialGradient
       cx="26.375898"
       cy="12.31301"
       r="8"
       fx="26.375898"
       fy="12.31301"
       id="radialGradient2889"
       xlink:href="#linearGradient6954"
       gradientUnits="userSpaceOnUse"
       gradientTransform="matrix(0.86552039,-0.07102871,0.06760608,0.84907396,-11.038912,-4.204803)" />
    <linearGradient
       x1="30"
       y1="5"
       x2="30"
       y2="44.678879"
       id="linearGradient2891"
       xlink:href="#linearGradient3785"
       gradientUnits="userSpaceOnUse"
       gradientTransform="matrix(0.52770326,0,0,0.53573244,-1.3310981,-1.4043014)" />
    <linearGradient
       x1="22"
       y1="39"
       x2="17"
       y2="37.4375"
       id="linearGradient2893"
       xlink:href="#linearGradient5060"
       gradientUnits="userSpaceOnUse"
       gradientTransform="matrix(0.74999995,0,0,0.43478262,-5.1276295,2.9173914)" />
    <radialGradient
       cx="30"
       cy="33.1875"
       r="4.6875"
       fx="30"
       fy="33.1875"
       id="radialGradient2895"
       xlink:href="#linearGradient5060"
       gradientUnits="userSpaceOnUse"
       gradientTransform="matrix(0.81491924,-3.8844793e-7,1.136461e-7,0.25340272,-9.9475804,6.5902095)" />
    <linearGradient
       x1="22"
       y1="39"
       x2="17"
       y2="37.4375"
       id="linearGradient2897"
       xlink:href="#linearGradient5060"
       gradientUnits="userSpaceOnUse"
       gradientTransform="matrix(-0.74999995,0,0,0.43478262,34.15,2.9173914)" />
    <linearGradient
       x1="30.00001"
       y1="6.333993"
       x2="30.00001"
       y2="24.913183"
       id="linearGradient2899"
       xlink:href="#linearGradient3341"
       gradientUnits="userSpaceOnUse"
       gradientTransform="matrix(0.52770326,0,0,0.53573244,-1.3310981,-1.4043014)" />
  </defs>
  <g
     id="g2901">
    <g
       transform="translate(-5,0)"
       id="g3758">
      <path
         d="M 24,21 A 9.5,3 0 0 1 5,21 9.5,3 0 1 1 24,21 z"
         id="path3823"
         style="opacity:0.8;fill:url(#radialGradient2881);fill-opacity:1;stroke:none" />
      <path
         d="m 12.177403,10.099947 c 0.23753,1.124653 0.370116,1.975373 0.177421,3.100026 -1.502303,1.247697 -5.3445034,1.80835 -5.3387447,3.100025 l -0.5161321,3.875036 c 0,1.284073 3.5817448,2.325019 8.0000528,2.325019 4.418307,0 8.000053,-1.040946 8.000053,-2.325019 l -0.516134,-3.875036 c -0.0061,-1.105498 -3.870993,-1.808346 -5.354873,-3.100025 -0.126751,-1.043848 -0.02586,-2.056174 0.193549,-3.100026 l -4.645192,0 z"
         id="path3766"
         style="fill:url(#radialGradient2883);fill-opacity:1;stroke:url(#linearGradient2885);stroke-width:0.99989432;stroke-miterlimit:4;stroke-opacity:1;stroke-dasharray:none" />
      <path
         d="m 13.21875,11.09375 c 0.08722,0.856711 0.3354,1.801007 -0.04818,2.615857 -0.642554,0.728465 -1.594602,1.093826 -2.46738,1.472715 C 9.3226847,15.510467 7.7137266,16 7.9252179,16.998373 7.7834779,18.061416 7.641739,19.124458 7.5,20.1875 c 0.3063993,0.160613 1.0809439,0.584904 1.625,0.6875 2.520767,0.666947 5.16785,0.725367 7.754874,0.519516 1.511711,-0.166212 3.088649,-0.352665 4.432626,-1.113266 0.335436,-0.07362 0.107122,-0.316411 0.114936,-0.654915 -0.132062,-1.021278 -0.264124,-2.042557 -0.396186,-3.063835 -0.587648,-0.5027 -1.391296,-0.753519 -2.106391,-1.064577 -1.082782,-0.447299 -2.251468,-0.853003 -3.086912,-1.707994 -0.391617,-0.689558 -0.161473,-1.538743 -0.107324,-2.28649 0.259681,-0.52835 -0.223399,-0.401903 -0.552932,-0.409689 -0.652981,0 -1.305961,0 -1.958941,0 z"
         id="path3742"
         style="fill:none;stroke:url(#linearGradient2887);stroke-width:0.99989432;stroke-miterlimit:4;stroke-opacity:1" />
      <path
         d="m 14.5,1.5422262 c -2.185818,0 -3.957774,1.67899 -3.957774,3.7501272 0.01713,0.7664876 0.08155,1.6770462 0.527701,3.750127 0.263852,0.8035986 2.617283,2.9465296 2.638517,3.2143946 0.511701,0.267865 1.319258,0.267865 1.846964,0 0,-0.267865 2.110813,-2.410796 2.374664,-3.2143946 0.502046,-2.1545496 0.500773,-2.9465283 0.527702,-3.750127 0,-2.0711372 -1.771956,-3.7501272 -3.957774,-3.7501272 z"
         id="path3764"
         style="fill:url(#radialGradient2889);fill-opacity:1;stroke:url(#linearGradient2891);stroke-width:1.08445191;stroke-miterlimit:4;stroke-opacity:1;stroke-dasharray:none" />
      <path
         d="M 10.62237,21.7 C 8.8506083,20.838176 9.6954668,18.924844 9.8723695,17.7 9.1223696,18.569566 9.5000001,21 8,21 c 1,0.355621 1.6845389,0.59817 2.62237,0.7 z"
         id="path3848"
         style="opacity:0.5;fill:url(#linearGradient2893);fill-opacity:1;stroke:none" />
      <path
         d="M 12,13.35048 C 12.366027,14.309818 13.343418,15 14.5,15 c 1.156582,0 2.133972,-0.690182 2.5,-1.64952 l -5,0 z"
         id="path3833"
         style="opacity:0.3;fill:url(#radialGradient2895);fill-opacity:1;stroke:none" />
      <path
         d="m 18.4,21.7 c 1.771762,-0.861824 0.926903,-2.775156 0.750001,-4 C 19.9,18.569566 19.52237,21 21.02237,21 c -1,0.355621 -1.684539,0.59817 -2.62237,0.7 z"
         id="path3720"
         style="opacity:0.5;fill:url(#linearGradient2897);fill-opacity:1;stroke:none" />
      <path
         d="m 14.5,2.53125 c -1.666616,0 -2.9513,1.2303173 -2.96875,2.71875 1.39e-4,0.00624 -1.45e-4,0.024997 0,0.03125 0.01647,0.7081029 0.08609,1.5272795 0.5,3.46875 -0.0051,-0.03667 0.09671,0.2041393 0.3125,0.46875 0.232433,0.2850235 0.566603,0.6083312 0.875,0.9375 0.308397,0.329169 0.598847,0.668975 0.84375,0.9375 0.09435,0.103448 0.171956,0.186905 0.25,0.28125 0.166811,0.03524 0.415249,0.03212 0.625,0 0.06182,-0.08397 0.114751,-0.159431 0.1875,-0.25 0.218248,-0.271707 0.473896,-0.575993 0.75,-0.90625 0.276104,-0.3302573 0.569207,-0.6813941 0.78125,-0.96875 0.197562,-0.2677316 0.307312,-0.503144 0.3125,-0.5 0.460701,-1.9997828 0.473735,-2.6695721 0.5,-3.46875 0,-0.010182 1.19e-4,-0.021091 0,-0.03125 C 17.4513,3.7615673 16.166616,2.53125 14.5,2.53125 z"
         id="path3730"
         style="fill:none;stroke:url(#linearGradient2899);stroke-width:1.08445191;stroke-miterlimit:4;stroke-opacity:1;stroke-dasharray:none" />
    </g>
    <g
       transform="matrix(0.74999999,0,0,0.74999999,11,12.000001)"
       id="layer1">
      <path
         d="m 8.0000009,0.66657169 c -4.0463305,0 -7.33342755,3.28709451 -7.33342755,7.33342631 0,4.046334 3.28709705,7.333431 7.33342755,7.333428 4.0463311,0 7.3334311,-3.287094 7.3334271,-7.333428 0,-4.0463318 -3.287096,-7.33342631 -7.3334271,-7.33342631 z"
         id="path2449"
         style="fill:url(#radialGradient2874);fill-opacity:1;stroke:url(#linearGradient2876);stroke-width:1.33314669;stroke-linecap:round;stroke-linejoin:round;stroke-miterlimit:4;stroke-opacity:1;stroke-dasharray:none;stroke-dashoffset:0" />
      <path
         d="m 14.000184,7.9997877 c 0,3.3139163 -2.686571,6.0003953 -6.0001086,6.0003953 -3.3138406,0 -6.00026,-2.686508 -6.00026,-6.0003953 0,-3.3137649 2.6864194,-5.9999733 6.00026,-5.9999733 3.3135376,0 6.0001086,2.6862084 6.0001086,5.9999733 l 0,0 z"
         id="path2451"
         style="opacity:0.4;fill:none;stroke:url(#linearGradient2878);stroke-width:1.33296406;stroke-miterlimit:4;stroke-opacity:1;stroke-dasharray:none" />
      <path
         d="M 5.6000001,7.9818968 C 5.7090026,8.2528385 5.828327,8.4711836 6.0522052,8.1567054 6.3374959,7.9657855 7.2862216,7.1413414 7.2180895,7.9134779 6.9597842,9.3477088 6.6327904,10.769795 6.3963822,12.20751 6.1215881,13.000704 6.8419199,13.678324 7.5456214,13.140909 8.3019069,12.783128 8.9429493,12.224666 9.6,11.709525 9.498722,11.480589 9.4242553,11.148805 9.1812299,11.463646 8.8526697,11.633684 8.1504224,12.400512 7.9910256,11.798433 8.2123074,10.247823 8.6755082,8.7443246 8.9490788,7.2038552 9.228154,6.4892451 8.6933454,5.6228147 7.966962,6.2343339 7.0853254,6.6733141 6.3605033,7.3609779 5.6000001,7.9818968 z M 8.7288706,2.6685682 C 7.8114567,2.6562416 7.3918215,4.1943076 8.2779344,4.574016 8.9953049,4.8427934 9.7348494,4.066394 9.5335057,3.3292734 9.4649374,2.9439563 9.1144173,2.6396518 8.7288715,2.6685682 l -9e-7,0 z"
         id="path3536"
         style="font-size:40px;font-style:normal;font-variant:normal;font-weight:bold;font-stretch:normal;text-align:start;line-height:100%;writing-mode:lr-tb;text-anchor:start;fill:white;fill-opacity:1;stroke:none;font-family:URW Palladio L;-inkscape-font-specification:URW Palladio L Bold" />
    </g>
  </g>
</svg>

<?xml version="1.0" encoding="UTF-8" standalone="no"?>
<!-- Created with Inkscape (http://www.inkscape.org/) -->
<svg id="svg11300" xmlns="http://www.w3.org/2000/svg" height="24" width="24" version="1.0" xmlns:xlink="http://www.w3.org/1999/xlink">
 <defs id="defs3">
  <linearGradient id="linearGradient3785">
   <stop id="stop3787" style="stop-color:#b8b8b8" offset="0"/>
   <stop id="stop3789" style="stop-color:#878787" offset="1"/>
  </linearGradient>
  <linearGradient id="linearGradient6954">
   <stop id="stop6960" style="stop-color:#f5f5f5" offset="0"/>
   <stop id="stop6962" style="stop-color:#d2d2d2" offset="1"/>
  </linearGradient>
  <linearGradient id="linearGradient3341">
   <stop id="stop3343" style="stop-color:#fff" offset="0"/>
   <stop id="stop3345" style="stop-color:#fff;stop-opacity:0" offset="1"/>
  </linearGradient>
  <linearGradient id="linearGradient5060">
   <stop id="stop5062" offset="0"/>
   <stop id="stop5064" style="stop-opacity:0" offset="1"/>
  </linearGradient>
  <radialGradient id="radialGradient2874" gradientUnits="userSpaceOnUse" cy="3.99" cx="23.896" gradientTransform="matrix(0 .86033 -1.1356 0 12.531 -20.445)" r="20.397">
   <stop id="stop3870" style="stop-color:#8badea" offset="0"/>
   <stop id="stop3872" style="stop-color:#6396cd" offset=".26238"/>
   <stop id="stop3874" style="stop-color:#3b7caf" offset=".66094"/>
   <stop id="stop3876" style="stop-color:#194c70" offset="1"/>
  </radialGradient>
  <linearGradient id="linearGradient2876" y2="3.0816" gradientUnits="userSpaceOnUse" x2="18.379" gradientTransform="matrix(.36048 0 0 .36048 -.65141 -.65142)" y1="44.98" x1="18.379">
   <stop id="stop3880" style="stop-color:#1f4b6a" offset="0"/>
   <stop id="stop3882" style="stop-color:#4083c2" offset="1"/>
  </linearGradient>
  <linearGradient id="linearGradient2878" y2="5.4676" xlink:href="#linearGradient3341" gradientUnits="userSpaceOnUse" x2="63.397" gradientTransform="matrix(.68609 0 0 .68607 -34.675 10.409)" y1="-12.489" x1="63.397"/>
  <radialGradient id="radialGradient2881" xlink:href="#linearGradient5060" gradientUnits="userSpaceOnUse" cy="41.5" cx="32" gradientTransform="matrix(.45238 0 0 .14286 .023809 15.071)" r="21"/>
  <radialGradient id="radialGradient2883" xlink:href="#linearGradient6954" gradientUnits="userSpaceOnUse" cy="28.66" cx="25" gradientTransform="matrix(.67742 0 0 .19286 -5.0163 9.9977)" r="16"/>
  <linearGradient id="linearGradient2885" y2="45" xlink:href="#linearGradient3785" gradientUnits="userSpaceOnUse" x2="30" gradientTransform="matrix(.51613 0 0 .51667 -.98397 -.49181)" y1="25.085" x1="30"/>
  <linearGradient id="linearGradient2887" y2="43.531" xlink:href="#linearGradient3341" gradientUnits="userSpaceOnUse" x2="29.996" gradientTransform="matrix(.51613 0 0 .51667 -.98397 -.49181)" y1="21.44" x1="29.996"/>
  <radialGradient id="radialGradient2889" xlink:href="#linearGradient6954" gradientUnits="userSpaceOnUse" cy="12.313" cx="26.376" gradientTransform="matrix(.86552 -.071029 .067606 .84907 -11.039 -4.2048)" r="8"/>
  <linearGradient id="linearGradient2891" y2="44.679" xlink:href="#linearGradient3785" gradientUnits="userSpaceOnUse" x2="30" gradientTransform="matrix(.52770 0 0 .53573 -1.3311 -1.4043)" y1="5" x1="30"/>
  <linearGradient id="linearGradient2893" y2="37.438" xlink:href="#linearGradient5060" gradientUnits="userSpaceOnUse" x2="17" gradientTransform="matrix(0.75 0 0 .43478 -5.1276 2.9174)" y1="39" x1="22"/>
  <radialGradient id="radialGradient2895" xlink:href="#linearGradient5060" gradientUnits="userSpaceOnUse" cy="33.188" cx="30" gradientTransform="matrix(.81492 -3.8845e-7 1.1365e-7 .25340 -9.9476 6.5902)" r="4.6875"/>
  <linearGradient id="linearGradient2897" y2="37.438" xlink:href="#linearGradient5060" gradientUnits="userSpaceOnUse" x2="17" gradientTransform="matrix(-0.75 0 0 .43478 34.15 2.9174)" y1="39" x1="22"/>
  <linearGradient id="linearGradient2899" y2="24.913" xlink:href="#linearGradient3341" gradientUnits="userSpaceOnUse" x2="30" gradientTransform="matrix(.52770 0 0 .53573 -1.3311 -1.4043)" y1="6.334" x1="30"/>
 </defs>
 <g id="g2901">
  <g id="g3758" transform="translate(-5)">
   <path id="path3823" style="opacity:.8;fill:url(#radialGradient2881)" d="m24 21a9.5 3 0 0 1 -19 0 9.5 3 0 1 1 19 0z"/>
   <path id="path3766" style="stroke:url(#linearGradient2885);stroke-width:.99989;fill:url(#radialGradient2883)" d="m12.177 10.1c0.23753 1.1247 0.37012 1.9754 0.17742 3.1-1.5023 1.2477-5.3445 1.8084-5.3387 3.1l-0.51613 3.875c0 1.2841 3.5817 2.325 8.0001 2.325 4.4183 0 8.0001-1.0409 8.0001-2.325l-0.51613-3.875c-0.0061-1.1055-3.871-1.8083-5.3549-3.1-0.12675-1.0438-0.02586-2.0562 0.19355-3.1h-4.6452z"/>
   <path id="path3742" style="stroke:url(#linearGradient2887);stroke-width:.99989;fill:none" d="m13.219 11.094c0.08722 0.85671 0.3354 1.801-0.04818 2.6159-0.64255 0.72846-1.5946 1.0938-2.4674 1.4727-1.3803 0.327-2.9893 0.817-2.7778 1.815-0.1417 1.063-0.2835 2.126-0.4252 3.19 0.3064 0.16061 1.0809 0.5849 1.625 0.6875 2.5208 0.66695 5.1678 0.72537 7.7549 0.51952 1.5117-0.16621 3.0886-0.35266 4.4326-1.1133 0.33544-0.07362 0.10712-0.31641 0.11494-0.65492-0.13206-1.0213-0.26412-2.0426-0.39619-3.0638-0.58765-0.5027-1.3913-0.75352-2.1064-1.0646-1.0828-0.4473-2.2515-0.853-3.0869-1.708-0.39162-0.68956-0.16147-1.5387-0.10732-2.2865 0.25968-0.52835-0.2234-0.4019-0.55293-0.40969h-1.9589z"/>
   <path id="path3764" style="stroke:url(#linearGradient2891);stroke-width:1.0845;fill:url(#radialGradient2889)" d="m14.5 1.5422c-2.1858 0-3.9578 1.679-3.9578 3.7501 0.01713 0.76649 0.08155 1.677 0.5277 3.7501 0.26385 0.8036 2.6173 2.9465 2.6385 3.2144 0.5117 0.26786 1.3193 0.26786 1.847 0 0-0.26786 2.1108-2.4108 2.3747-3.2144 0.50205-2.1545 0.50077-2.9465 0.5277-3.7501 0-2.0711-1.772-3.7501-3.9578-3.7501z"/>
   <path id="path3848" style="opacity:.5;fill:url(#linearGradient2893)" d="m10.622 21.7c-1.7714-0.862-0.9265-2.775-0.7496-4-0.75 0.87-0.3724 3.3-1.8724 3.3 1 0.35562 1.6845 0.59817 2.6224 0.7z"/>
   <path id="path3833" style="opacity:.3;fill:url(#radialGradient2895)" d="m12 13.35c0.366 0.96 1.343 1.65 2.5 1.65 1.1566 0 2.134-0.69018 2.5-1.6495h-5z"/>
   <path id="path3720" style="opacity:.5;fill:url(#linearGradient2897)" d="m18.4 21.7c1.7718-0.86182 0.9269-2.7752 0.75-4 0.75 0.87 0.372 3.3 1.872 3.3-1 0.35562-1.6845 0.59817-2.6224 0.7z"/>
   <path id="path3730" style="stroke:url(#linearGradient2899);stroke-width:1.0845;fill:none" d="m14.5 2.5312c-1.6666 0-2.9513 1.2303-2.9688 2.7188 0.000139 0.00624-0.000145 0.024997 0 0.03125 0.01647 0.7081 0.08609 1.5273 0.5 3.4688-0.0051-0.03667 0.09671 0.20414 0.3125 0.46875 0.23243 0.28502 0.5666 0.60833 0.875 0.9375s0.59885 0.66898 0.84375 0.9375c0.09435 0.10345 0.17196 0.1869 0.25 0.28125 0.16681 0.03524 0.41525 0.03212 0.625 0 0.06182-0.08397 0.11475-0.15943 0.1875-0.25 0.21825-0.27171 0.4739-0.57599 0.75-0.90625s0.56921-0.68139 0.78125-0.96875c0.19756-0.26773 0.30731-0.50314 0.3125-0.5 0.4607-1.9998 0.47374-2.6696 0.5-3.4688 0-0.010182 0.000119-0.021091 0-0.03125-0.018-1.4884-1.302-2.7188-2.969-2.7188z"/>
  </g>
  <g id="layer1" transform="matrix(0.75 0 0 0.75 11 12)">
   <path id="path2449" style="stroke-linejoin:round;stroke:url(#linearGradient2876);stroke-linecap:round;stroke-width:1.3331;fill:url(#radialGradient2874)" d="m8 0.66657c-4.0463 0-7.3334 3.2871-7.3334 7.3334s3.2871 7.3334 7.3334 7.3334 7.3334-3.2871 7.3334-7.3334-3.2871-7.3334-7.3334-7.3334z"/>
   <path id="path2451" style="opacity:.4;stroke:url(#linearGradient2878);stroke-width:1.333;fill:none" d="m14 7.9998c0 3.3139-2.6866 6.0004-6.0001 6.0004-3.3138 0-6.0003-2.6865-6.0003-6.0004 0-3.3138 2.6864-6 6.0003-6 3.3135 0 6.0001 2.6862 6.0001 6z"/>
   <path id="path3536" style="fill:#fff" d="m5.6 7.9819c0.109 0.2709 0.2283 0.4893 0.4522 0.1748 0.2853-0.1909 1.234-1.0154 1.1659-0.2432-0.2583 1.4342-0.5853 2.8565-0.8217 4.2945-0.2748 0.793 0.4455 1.47 1.1492 0.933 0.7563-0.358 1.3973-0.916 2.0544-1.431-0.1013-0.229-0.1757-0.561-0.4188-0.246-0.3285 0.17-1.0308 0.937-1.1902 0.334 0.2213-1.55 0.6845-3.0537 0.9581-4.5941 0.2791-0.7147-0.2558-1.5811-0.9821-0.9696-0.8817 0.439-1.6065 1.1267-2.367 1.7476zm3.1289-5.3133c-0.9174-0.0124-1.3371 1.5257-0.451 1.9054 0.7174 0.2688 1.4569-0.5076 1.2556-1.2447-0.0686-0.3853-0.4191-0.6896-0.8046-0.6607h-9e-7z"/>
  </g>
 </g>
</svg>
